img/svg/16/net/w3m.svg

<svg xmlns="http://www.w3.org/2000/svg" viewBox="0 0 16 16" enable-background="new 0 0 16 16"><path d="M9 9v-1h1v1h-1zm0-1v-2h-3v2h3zm-3 1v2h3v-2h-3zm7-2v4h-1v-4h-1v5h-1v-1h-1v1h-3v-1h-1v1h-1v-1h-1v1h-1v-1h-1v4h14v-3h-1v-5h-1zm-10 0h1v4h1v-5h1v-1h3v1h1v1h1v-1h1v1h1v-1h1v1h1v-6h-14v5h1v5h1v-4z" fill="#ccc"/></svg>

<svg xmlns="http://www.w3.org/2000/svg" viewBox="0 0 16 16"><path fill="#ccc" d="M9 9V8h1v1H9zm0-1V6H6v2h3zM6 9v2h3V9H6zm7-2v4h-1V7h-1v5h-1v-1H9v1H6v-1H5v1H4v-1H3v1H2v-1H1v4h14v-3h-1V7h-1zM3 7h1v4h1V6h1V5h3v1h1v1h1V6h1v1h1V6h1v1h1V1H1v5h1v5h1V7z"/></svg>
